X: 1
T: Lord Lyndoch
R: strathspey
S: Reel & Strathspey Tutorial
M: 4/4
L: 1/8
K: D
c/ \
| "D"d>e d>B A>F D>F | "Em"EA Gc \
| "D"d>e d>B A>F D>F | "Em"E>D "A7"E>F "D"D2- D> :|
g \
| "D"f/e/d a>d f>d a>d | "A7"c/B/A e>A c>A e<g \
| "D"f/e/d a>d f>d a>f | "G"gg "D"f<d d> ||
g \
| "D"f/e/d a>d f>d a>d | "A7"c/B/A e>A c>A e>A \
| "G"B<d "A"c<e "Bm"d<f "Em"e<g | "Bm"fg "D"f<d d> |]
